build/img/icon-star.svg

<svg width="20" height="19" viewBox="0 0 20 19" fill="none" xmlns="http://www.w3.org/2000/svg">
<path d="M19.1298 6.47772L13.6222 5.95698C13.275 5.92542 12.9749 5.7045 12.8331 5.37312L10.8603 0.591753C10.5447 -0.197251 9.42405 -0.197251 9.10841 0.591753L7.15147 5.37312C7.02522 5.7045 6.70958 5.92542 6.36238 5.95698L0.85455 6.47772C0.0338988 6.55662 -0.297518 7.58233 0.31797 8.13463L4.46857 11.7798C4.73686 12.0165 4.84734 12.3637 4.76843 12.7109L3.52167 17.8234C3.33229 18.6284 4.20028 19.291 4.92624 18.8651L9.51874 16.1665C9.81859 15.993 10.1816 15.993 10.4814 16.1665L15.0741 18.8651C15.8 19.291 16.668 18.6442 16.4785 17.8234L15.2475 12.7109C15.1686 12.3637 15.2791 12.0165 15.5474 11.7798L19.698 8.13463C20.2977 7.58233 19.9505 6.55662 19.1298 6.47772Z" fill="#E3E8EE"/>
</svg>

<svg width="20" height="19" fill="none" xmlns="http://www.w3.org/2000/svg"><path d="M19.13 6.478l-5.508-.521a.952.952 0 01-.789-.584L10.86.592c-.315-.79-1.436-.79-1.752 0L7.151 5.373a.932.932 0 01-.789.584l-5.507.52c-.821.08-1.153 1.105-.537 1.658l4.15 3.645a.944.944 0 01.3.93l-1.246 5.113c-.19.805.678 1.468 1.404 1.042l4.593-2.698a.955.955 0 01.962 0l4.593 2.698c.726.426 1.594-.22 1.405-1.042l-1.231-5.112a.944.944 0 01.3-.931l4.15-3.645c.6-.553.253-1.578-.568-1.657z" fill="#E3E8EE"/></svg>
